X:1
T:Not Tonight
T:Not Tonight
T:Peter Philip Bilhorn 
T:Peter Philip Bilhorn, 1892
T:Public Domain Courtesy of the Cyber Hymnal™
T:Public Domain Courtesy of the Cyber Hymnal™
C:Peter Philip Bilhorn
Z:Public Domain
Z:Courtesy of the Cyber Hymnal™
%%score ( 1 2 ) ( 3 4 )
L:1/8
Q:1/4=90
M:3/4
K:Eb
V:1 treble 
V:2 treble 
V:3 bass 
V:4 bass 
V:1
 E>[EF] | [EG]3 [E^F] [EG]>[Ec] | [EB]3 E E>[EF] | [EG]3 [B,E] [DF]>[DG] | [DF]3 [DF] [DF]>[EG] | %5
w: 1.~“Not to-|night,” so ma- ny|say, And turn from|light and life a-|way, A- las! for|
w: 2.~“Not to-|night,” a man re-|plied, And turned with|care- less laugh a-|side, But death called|
w: 3.~“Not to-|night!” O trem- bling|heart, Why long- er|bid thy Lord de-|part? Why will you|
w: 4.~“Not to-|night,” O sad re-|ply, When Christ to|save you wait- eth|nigh, The day of|
w: 5.~“Not to-|night,” count well the|cost, Should you for-|ev- er- more be|lost? If Heav’n and|
 [DA]3 [DF] [EG]>[FA] | [GB]3 [EG] [GB]>[Ge] | [Fd]3 [Fc] [FB]>[E=A] | [DB]4 ||"^Refrain" B>B | %10
w: some ’twill be too|late; An- o- ther|night may seal their|fate.||
w: loud that ve- ry|night; His soul in|ter- ror took its|flight.|Come to-|
w: choose that bit- ter|lot To hear Him|say, “I know you|not!”||
w: grace may soon be|past, Your cry will|be lost, lost at|last!||
w: bliss you ne- ver|see, Where will you|spend e- ter- ni-|ty?||
 (z3/2 e>)B=A>B x3 | (z3/2 [E=c]2) c>c x5/2 | z2 [Ad]>[A^c] [GB]>[FA] x2 | [EG]6 B>B | %14
w: ||||
w: * night, O come|* to- night,|* Je- sus lov-|* ing- ly|
w: ||||
w: ||||
w: ||||
 (z3/2 e>)ed>e x3 | (z3/2 [Ac]>)[Ac][Ad]>[^Fe] x5/2 | [GB]4 .[EG]2 [DA]>[DF] | [B,E]6 |] %18
w: ||||
w: * doth * wait;|* Come to- night,|* O come to-|night|
w: ||||
w: ||||
w: ||||
V:2
 E3/2 x/ | x6 | x3 E E3/2 x/ | x6 | x6 | x6 | x6 | x6 | x4 || x2 | (e4- G<=AA/ G2) | %11
 ^c4- E<EE/ x3/2 | d4- A3/2 A/ x2 | x8 | (e4- G<AA/ G2) | ^f4 A/ A3/2 A/ x3/2 | x8 | x6 |] %18
V:3
 [E,G,]>[E,A,] | [E,B,]3 [E,=A,] [E,B,]>[E,_A,] | [E,G,]3 [E,G,] [C,G,]>[C,=A,] | %3
w: ~ ~|~ ~ ~ ~|~ ~ ~ ~|
 [B,,B,]3 [B,,G,] [B,,A,]>[B,,B,] | [B,,B,]3 [B,,B,] [B,,A,]>[B,,G,] | %5
w: ~ ~ ~ ~|~ ~ ~ ~|
 [B,,F,]3 [B,,B,] [E,B,]>[E,B,] | [E,E]3 [E,B,] [E,E]>[E,B,] | [F,B,]3 [F,E] [F,D]>[F,C] | %8
w: ~ ~ ~ ~|~ ~ ~ ~|~ ~ ~ ~|
 [B,,B,]4 || z2 | z3/2 [E,B,]/ [E,C]>[E,C] [E,B,]2 z2 x/ | %11
w: ~||O come to- night,|
 z3/2 [A,,A,]/ [A,,A,]>[A,,A,] [A,,A,]2 z2 | z2 [B,,B,]>[B,,B,] [B,,B,]>[B,,B,][B,,B,]>[B,,B,] | %13
w: O come to- night,|Je- sus lov- ing- ly doth|
 [E,B,]6 z2 | z3/2 [E,B,]/ [E,C]>[E,C] [E,B,]2 z2 x/ | %15
w: wait;|O come to- night,|
 z3/2 [A,C]/ [A,C]>[A,C] [A,E]>[A,E][A,D]>[=A,C] | B,4 B,2 [B,,B,]>[B,,A,] | [E,G,]6 |] %18
w: O come to- night, Some o- ther|night may be too|late.|
V:4
 x2 | x6 | x6 | x6 | x6 | x6 | x6 | x6 | x4 || x2 | x17/2 | x8 | x8 | x8 | x17/2 | x8 | %16
 B,4 B,2 x2 | x6 |] %18

